resources/places/bookmarksToolbar.svg

<svg width="16" height="16" fill="#f4f4f7" fill-opacity="context-fill-opacity" xmlns="http://www.w3.org/2000/svg">
    <path fill-opacity=".15" d="M15 14H1c-.6 0-1-.4-1-1V3c0-.5.4-1 1-1h14c.6 0 1 .5 1 1v10c0 .6-.4 1-1 1z"/>
    <path d="m8.4 4.2 1 2.1 2.3.3c.3 0 .5.4.2.7L10.2 9l.4 2.4c.1.3-.3.6-.6.4l-2-1L6 12c-.3.1-.6-.1-.6-.4l.4-2.4-1.7-1.8c-.2-.2-.1-.6.2-.7l2.3-.3 1-2.1c.2-.4.6-.4.8-.1z"/>
    <path d="M15 2H1c-.5 0-1 .5-1 1v10c0 .5.5 1 1 1h14c.5 0 1-.5 1-1V3c0-.5-.5-1-1-1zm0 10.5c0 .3-.2.5-.5.5h-13c-.3 0-.5-.2-.5-.5v-9c0-.3.2-.5.5-.5h13c.3 0 .5.2.5.5v9z"/>
</svg>

<!-- This Source Code Form is subject to the terms of the Mozilla Public
   - License, v. 2.0. If a copy of the MPL was not distributed with this
   - file, You can obtain one at http://mozilla.org/MPL/2.0/. -->
<svg width="16" height="16" viewBox="0 0 16 16" fill="context-fill" fill-opacity="context-fill-opacity" xmlns="http://www.w3.org/2000/svg">
  <path fill-opacity=".15" d="M15,14H1c-0.6,0-1-0.4-1-1V3c0-0.5,0.4-1,1-1h14c0.6,0,1,0.5,1,1v10C16,13.6,15.6,14,15,14z"/>
  <path d="M8.4,4.2l1,2.1l2.3,0.3c0.3,0,0.5,0.4,0.2,0.7l-1.7,1.7l0.4,2.4c0.1,0.3-0.3,0.6-0.6,0.4L8,10.8L6,12 c-0.3,0.1-0.6-0.1-0.6-0.4l0.4-2.4L4.1,7.4C3.9,7.2,4,6.8,4.3,6.7l2.3-0.3l1-2.1C7.8,3.9,8.2,3.9,8.4,4.2z"/>
  <path d="M15,2H1C0.5,2,0,2.5,0,3v10c0,0.5,0.5,1,1,1h14c0.5,0,1-0.5,1-1V3C16,2.5,15.5,2,15,2z M15,12.5 c0,0.3-0.2,0.5-0.5,0.5h-13C1.2,13,1,12.8,1,12.5v-9C1,3.2,1.2,3,1.5,3h13C14.8,3,15,3.2,15,3.5V12.5z"/>
</svg>
